file-png-box.svg

<svg fill="currentColor" viewBox="0 0 24 24"><path d="M19 3H5c-1.1 0-2 .9-2 2v14c0 1.1.9 2 2 2h14c1.1 0 2-.9 2-2V5c0-1.1-.9-2-2-2M9 11.5c0 .8-.7 1.5-1.5 1.5h-1v2H5V9h2.5c.8 0 1.5.7 1.5 1.5zm5 3.5h-1.5l-1-2.5V15H10V9h1.5l1 2.5V9H14zm5-4.5h-2.5v3h1V12H19v1.7c0 .7-.5 1.3-1.3 1.3h-1.3c-.8 0-1.3-.7-1.3-1.3v-3.3c-.1-.7.4-1.4 1.2-1.4h1.3c.8 0 1.3.7 1.3 1.3v.2zm-12.5 0h1v1h-1z"/></svg>

<svg  viewBox="0 0 24 24" fill="currentColor"><path  d="M19 3H5C3.9 3 3 3.9 3 5V19C3 20.1 3.9 21 5 21H19C20.1 21 21 20.1 21 19V5C21 3.9 20.1 3 19 3M9 11.5C9 12.3 8.3 13 7.5 13H6.5V15H5V9H7.5C8.3 9 9 9.7 9 10.5V11.5M14 15H12.5L11.5 12.5V15H10V9H11.5L12.5 11.5V9H14V15M19 10.5H16.5V13.5H17.5V12H19V13.7C19 14.4 18.5 15 17.7 15H16.4C15.6 15 15.1 14.3 15.1 13.7V10.4C15 9.7 15.5 9 16.3 9H17.6C18.4 9 18.9 9.7 18.9 10.3V10.5H19M6.5 10.5H7.5V11.5H6.5V10.5Z"/></svg>
